build/documents/ZIPSolid.svg

<svg xmlns="http://www.w3.org/2000/svg" fill="none" viewBox="0 0 24 24" focusable="false"><path fill="none" d="M0 0H24V24H0z"/><path fill="#74767B" fill-rule="evenodd" d="M5 11L5 6C5 4.34315 6.34315 3 8 3L13.042 3C13.8752 3 14.671 3.34655 15.2385 3.95662L18.1965 7.13629C18.7129 7.69141 19 8.42148 19 9.17966L19 11C20.6569 11 22 12.3431 22 14L22 18C22 19.6569 20.6569 21 19 21L5 21C3.34315 21 2 19.6569 2 18L2 14C2 12.3431 3.34315 11 5 11ZM13.042 4.3L8 4.3C7.06112 4.3 6.3 5.06112 6.3 6L6.3 11L17.7 11L17.7 9.17966C17.7 9.11913 17.6968 9.05892 17.6904 8.99925L15.2999 8.99926C14.223 8.99926 13.3499 8.12621 13.3499 7.04926L13.3499 4.32811C13.2491 4.30954 13.1461 4.3 13.042 4.3ZM14.6499 5.23254L16.9447 7.69926L15.2999 7.69926C14.9409 7.69926 14.6499 7.40824 14.6499 7.04926L14.6499 5.23254ZM14.9651 18.4085C15.3241 18.4085 15.6151 18.1175 15.6151 17.7585L15.6151 17.1861L16.2832 17.1861C17.2759 17.1861 18.0806 16.3813 18.0806 15.3886C18.0806 14.396 17.2759 13.5912 16.2832 13.5912L14.9651 13.5912C14.6061 13.5912 14.3151 13.8823 14.3151 14.2412L14.3151 17.7585C14.3151 18.1175 14.6061 18.4085 14.9651 18.4085ZM12.65 14.2413C12.65 13.8823 12.359 13.5913 12 13.5913C11.641 13.5913 11.35 13.8823 11.35 14.2413L11.35 17.7585C11.35 18.1175 11.641 18.4085 12 18.4085C12.359 18.4085 12.65 18.1175 12.65 17.7585L12.65 14.2413ZM6.00503 14.2432C6.00503 13.8842 6.29605 13.5932 6.65503 13.5932L9.03497 13.5932C9.27555 13.5932 9.49645 13.7261 9.60919 13.9386C9.72192 14.1511 9.70806 14.4085 9.57314 14.6077L7.88038 17.1069L9.03497 17.1069C9.39396 17.1069 9.68497 17.3979 9.68497 17.7569C9.68497 18.1159 9.39396 18.4069 9.03497 18.4069L6.65504 18.4069C6.41446 18.4069 6.19356 18.274 6.08083 18.0615C5.96809 17.8489 5.98196 17.5915 6.11687 17.3923L7.80964 14.8932L6.65503 14.8932C6.29605 14.8932 6.00503 14.6022 6.00503 14.2432ZM16.7806 15.3886C16.7806 15.6634 16.5579 15.8861 16.2832 15.8861L15.6151 15.8861L15.6151 14.8912L16.2832 14.8912C16.5579 14.8912 16.7806 15.1139 16.7806 15.3886Z"/></svg>

<svg xmlns="http://www.w3.org/2000/svg" fill="none" viewBox="0 0 24 24" focusable="false"><path fill="none" d="M0 0h24v24H0z"/><path fill="#74767B" fill-rule="evenodd" d="M5 11V6c0-1.66 1.34-3 3-3h5.04c.83 0 1.63.34 2.19.95l2.96 3.18c.52.56.81 1.29.81 2.04V11c1.65 0 3 1.34 3 3v4c0 1.65-1.35 3-3 3H5c-1.66 0-3-1.35-3-3v-4c0-1.66 1.34-3 3-3m8.04-6.71H8c-.94 0-1.7.77-1.7 1.71v5h11.4V9.17c0-.06-.01-.12-.01-.18h-2.4c-1.07 0-1.95-.87-1.95-1.95V4.32q-.15-.03-.3-.03m1.6.94 2.3 2.46h-1.65c-.35 0-.65-.29-.65-.65zm.32 13.17c.36 0 .65-.29.65-.65v-.57h.67c.99 0 1.8-.8 1.8-1.8 0-.99-.81-1.79-1.8-1.79h-1.32c-.36 0-.65.29-.65.65v3.51c0 .36.29.65.65.65m-2.32-4.16c0-.36-.29-.65-.64-.65-.36 0-.65.29-.65.65v3.51c0 .36.29.65.65.65.35 0 .64-.29.64-.65zm-6.64 0c0-.36.29-.65.65-.65h2.38c.24 0 .46.13.57.34.12.22.1.47-.03.67l-1.69 2.5h1.15c.36 0 .65.29.65.65s-.29.65-.65.65H6.65a.64.64 0 0 1-.57-.34c-.12-.22-.1-.47.03-.67l1.69-2.5H6.65c-.36 0-.65-.29-.65-.65m10.78 1.14c0 .28-.23.5-.5.5h-.67v-.99h.67c.27 0 .5.22.5.49"/></svg>
